; generated by PrusaSlicer 2.7.3+win64 on 2026-02-15 at 22:36:12 UTC

; 

; external perimeters extrusion width = 0.45mm
; perimeters extrusion width = 0.45mm
; infill extrusion width = 0.45mm
; solid infill extrusion width = 0.45mm
; top infill extrusion width = 0.40mm
; support material extrusion width = 0.40mm
; first layer extrusion width = 0.60mm

M190 S85 ; set bed temperature and wait for it to be reached
M104 S240 ; set temperature
;TYPE:Custom
G28 ; home all axes
G1 Z5 F5000 ; lift nozzle
M109 S240 ; set temperature and wait for it to be reached
G21 ; set units to millimeters
G90 ; use absolute coordinates
M82 ; use absolute distances for extrusion
G92 E0
; Filament gcode
M107
;LAYER_CHANGE
;Z:-0.2
;HEIGHT:-0.2
G1 E-4 F2400
G92 E0
G1 Z1.8 F4800
G1 X106.482 Y104.964
G1 Z-.2
G1 E4 F2400
G92 E0
;TYPE:Skirt/Brim
;WIDTH:0.6
;HEIGHT:0.3
G1 F2700
G1 X107.379 Y104.229 E.07747
G1 X108.958 Y103.161 E.20482
G1 X110.648 Y102.281 E.33211
G1 X112.427 Y101.599 E.45939
G1 X115.008 Y100.997 E.63644
G1 X116.716 Y100.823 E.75113
G1 X118.267 Y100.822 E.85475
G1 X119.968 Y100.993 E.96896
G1 X121.828 Y101.381 E1.09589
G1 X124.325 Y102.269 E1.27294
G1 X126.016 Y103.146 E1.4002
G1 X127.597 Y104.21 E1.52751
G1 X128.503 Y104.95 E1.60566
G1 X129.859 Y106.283 E1.73269
G1 X131.053 Y107.761 E1.85962
G1 X132.075 Y109.369 E1.9869
G1 X133.183 Y111.792 E2.16489
G1 X133.542 Y112.896 E2.24244
G1 X133.962 Y114.754 E2.3697
G1 X134.168 Y116.649 E2.49704
G1 X134.156 Y118.554 E2.62431
G1 X133.779 Y121.177 E2.80134
G1 X133.257 Y122.995 E2.9277
G1 X132.522 Y124.769 E3.05598
G1 X131.981 Y125.795 E3.13347
G1 X130.946 Y127.384 E3.26016
G1 X129.205 Y129.394 E3.43781
G1 X127.784 Y130.641 E3.56411
G1 X126.207 Y131.736 E3.69237
G1 X124.54 Y132.629 E3.81871
G1 X123.464 Y133.085 E3.89678
G1 X120.916 Y133.834 E4.0742
G1 X119.031 Y134.117 E4.20154
G1 X117.127 Y134.183 E4.32881
G1 X115.969 Y134.117 E4.4063
G1 X114.084 Y133.834 E4.53364
G1 X112.253 Y133.341 E4.66032
G1 X110.478 Y132.638 E4.78786
G1 X108.166 Y131.333 E4.96522
G1 X106.649 Y130.179 E5.09255
G1 X105.285 Y128.87 E5.21885
G1 X104.519 Y127.987 E5.29694
G1 X103.41 Y126.441 E5.42405
G1 X102.485 Y124.782 E5.55094
G1 X101.752 Y123.023 E5.67825
G1 X101.225 Y121.192 E5.80554
G1 X100.91 Y119.313 E5.93282
G1 X100.833 Y116.649 E6.11086
G1 X101.036 Y114.769 E6.23718
G1 X101.454 Y112.91 E6.36447
G1 X101.812 Y111.807 E6.44194
G1 X102.563 Y110.055 E6.56928
G1 X103.509 Y108.401 E6.69657
G1 X104.637 Y106.866 E6.82383
G1 X106.44 Y105.007 E6.99684
G1 E2.99684 F2400
G92 E0
G1 X106.44 Y105.007 F4800
G1 X118.845 Y111.98 Z1.8
G92 E0
G1 X126.69 Y116.39
G1 Z-.2
G1 E4 F2400
;TYPE:Perimeter
;WIDTH:0.713818
G1 F2700
G1 X125.55 Y114.417 E4.18458
;WIDTH:0.762287
G1 X125.063 Y113.523 E4.2732
G1 X124.546 Y112.638 E4.36242
;WIDTH:0.752071
G1 X124.278 Y112.209 E4.40581
;WIDTH:0.71831
G1 X124.011 Y111.779 E4.44709
;WIDTH:0.684548
G1 X122.998 Y110.025 E4.60376
G1 X123.775 Y110.661 E4.68143
G1 X124.525 Y111.435 E4.7648
;WIDTH:0.71831
G1 X124.82 Y111.846 E4.80606
;WIDTH:0.752071
G1 X125.138 Y112.289 E4.85283
;WIDTH:0.762287
G1 X125.663 Y113.169 E4.94203
G1 X126.127 Y114.119 E5.03406
;WIDTH:0.713818
G1 X126.462 Y115.143 E5.12133
G1 X126.671 Y116.177 E5.20678
G1 X126.685 Y116.331 E5.21931
G1 E1.21931 F2400
G92 E0
G1 X126.685 Y116.331 F4800
G1 X123.079 Y124.872 Z1.103
G1 Z-.2
G1 E4 F2400
;WIDTH:0.725973
G1 F2700
G1 X124.284 Y122.785 E4.19886
;WIDTH:0.764729
G1 X124.809 Y121.914 E4.2877
G1 X125.309 Y121.029 E4.37649
;WIDTH:0.745378
G1 X125.548 Y120.577 E4.41992
;WIDTH:0.706398
G1 X125.786 Y120.125 E4.46083
;WIDTH:0.667418
G1 X126.726 Y118.497 E4.60222
G1 X126.604 Y119.343 E4.66651
G1 X126.328 Y120.385 E4.74759
;WIDTH:0.706398
G1 X126.125 Y120.854 E4.78851
;WIDTH:0.745378
G1 X125.905 Y121.358 E4.83522
;WIDTH:0.764729
G1 X125.422 Y122.252 E4.92398
G1 X124.844 Y123.137 E5.01631
;WIDTH:0.725973
G1 X124.141 Y123.952 E5.10512
G1 X123.365 Y124.664 E5.19202
G1 X123.128 Y124.836 E5.21618
G1 E1.21618 F2400
G92 E0
G1 X123.128 Y124.836 F4800
G1 X117.5 Y126.736 Z.635
G1 Z-.2
G1 E4 F2400
;WIDTH:0.765533
G1 F2700
G1 X116.464 Y126.694 E4.09067
;WIDTH:0.736492
G1 X115.918 Y126.624 E4.13682
;WIDTH:0.692548
G1 X115.41 Y126.558 E4.17696
;WIDTH:0.648603
G1 X114.375 Y126.256 E4.25552
G1 X113.717 Y125.978 E4.30757
G1 X115.46 Y125.978 E4.43458
;WIDTH:0.692548
G1 X115.972 Y126 E4.47473
;WIDTH:0.736492
G1 X116.483 Y126.022 E4.51761
;WIDTH:0.765533
G1 X117.5 Y126.037 E4.60656
G1 X118.517 Y126.022 E4.69551
;WIDTH:0.736492
G1 X119.028 Y126 E4.73839
;WIDTH:0.692548
G1 X119.54 Y125.978 E4.77854
;WIDTH:0.648603
G1 X121.283 Y125.978 E4.90555
G1 X120.625 Y126.256 E4.9576
G1 X119.59 Y126.558 E5.03616
;WIDTH:0.692548
G1 X119.082 Y126.624 E5.0763
;WIDTH:0.736492
G1 X118.536 Y126.694 E5.12245
;WIDTH:0.765533
G1 X117.56 Y126.735 E5.20788
G1 E1.20788 F2400
G92 E0
G1 X117.56 Y126.735 F4800
G1 X111.921 Y124.872 Z.635
G1 Z-.2
G1 E4 F2400
;WIDTH:0.725974
G1 F2700
G1 X111.638 Y124.667 E4.02884
G1 X110.859 Y123.952 E4.11609
G1 X110.156 Y123.137 E4.2049
;WIDTH:0.764728
G1 X109.578 Y122.252 E4.29723
G1 X109.095 Y121.358 E4.38599
;WIDTH:0.745379
G1 X108.875 Y120.854 E4.4327
;WIDTH:0.706398
G1 X108.672 Y120.385 E4.47362
;WIDTH:0.667417
G1 X108.396 Y119.343 E4.5547
G1 X108.274 Y118.497 E4.61899
G1 X109.214 Y120.125 E4.76038
;WIDTH:0.706398
G1 X109.452 Y120.577 E4.80129
;WIDTH:0.745379
G1 X109.691 Y121.029 E4.84472
;WIDTH:0.764728
G1 X110.191 Y121.914 E4.93351
G1 X110.716 Y122.785 E5.02235
;WIDTH:0.725974
G1 X111.891 Y124.82 E5.21625
G1 E1.21625 F2400
G92 E0
G1 X111.891 Y124.82 F4800
G1 X108.31 Y116.39 Z1.087
G1 Z-.2
G1 E4 F2400
;WIDTH:0.713818
G1 F2700
G1 X108.328 Y116.179 E4.01715
G1 X108.538 Y115.143 E4.10277
G1 X108.873 Y114.119 E4.19004
;WIDTH:0.761908
G1 X109.333 Y113.176 E4.28132
G1 X109.857 Y112.296 E4.37042
;WIDTH:0.752605
G1 X110.177 Y111.849 E4.41761
;WIDTH:0.718577
G1 X110.475 Y111.435 E4.45923
;WIDTH:0.684548
G1 X111.225 Y110.661 E4.5426
G1 X112.002 Y110.025 E4.62027
G1 X110.989 Y111.779 E4.77694
;WIDTH:0.718577
G1 X110.72 Y112.212 E4.81853
;WIDTH:0.752605
G1 X110.45 Y112.645 E4.86233
;WIDTH:0.761908
G1 X109.934 Y113.53 E4.95146
G1 X109.45 Y114.417 E5.03937
;WIDTH:0.713818
G1 X108.34 Y116.338 E5.21908
G1 E1.21908 F2400
G92 E0
G1 X108.34 Y116.338 F4800
G1 X117.5 Y108.968 Z1.452
G1 Z-.2
G1 E4 F2400
;WIDTH:0.7593
G1 F2700
G1 X116.491 Y108.978 E4.08746
;WIDTH:0.729655
G1 X115.973 Y108.993 E4.13046
;WIDTH:0.700011
G1 X113.818 Y108.993 E4.30131
G1 X114.888 Y108.601 E4.39165
G1 X115.937 Y108.359 E4.477
;WIDTH:0.729655
G1 X116.454 Y108.315 E4.52005
;WIDTH:0.7593
G1 X117 Y108.268 E4.56755
;WIDTH:0.766251
G1 X118.029 Y108.27 E4.65763
;WIDTH:0.759316
G1 X118.546 Y108.315 E4.70261
;WIDTH:0.729664
G1 X119.063 Y108.359 E4.74566
;WIDTH:0.700012
G1 X120.112 Y108.601 E4.83101
G1 X121.183 Y108.993 E4.92143
G1 X119.027 Y108.993 E5.09236
;WIDTH:0.729664
G1 X118.508 Y108.978 E5.13544
;WIDTH:0.7593
G1 X117.99 Y108.963 E5.18036
G1 X117.56 Y108.967 E5.21763
G1 E1.21763 F2400
G92 E0
G1 X117.56 Y108.967 F4800
G1 X113.703 Y122.665 Z1.8
G1 X112.925 Y125.428
G1 Z-.2
G1 E4 F2400
;TYPE:External perimeter
;WIDTH:0.702206
G1 F2700
G1 X112.883 Y125.35 E4.00705
;WIDTH:0.668137
G1 X112.84 Y125.272 E4.01376
;WIDTH:0.634068
G1 X112.798 Y125.193 E4.02012
;WIDTH:0.6
G1 X108.663 Y118.032 E4.57254
;WIDTH:0.636218
G1 X108.558 Y117.876 E4.58595
;WIDTH:0.672436
G1 X108.453 Y117.719 E4.60027
;WIDTH:0.708654
G1 X108.348 Y117.563 E4.61538
G1 X108.377 Y117.474 E4.6229
;WIDTH:0.668695
G1 X108.406 Y117.385 E4.62996
;WIDTH:0.628736
G1 X108.928 Y116.506 E4.70192
;WIDTH:0.6
G1 X111.49 Y112.068 E5.04426
G1 X112.531 Y110.265 E5.18334
;WIDTH:0.627603
G1 X112.678 Y109.982 E5.20574
;WIDTH:0.655207
G1 X112.826 Y109.698 E5.22934
;WIDTH:0.681109
G1 X112.867 Y109.637 E5.23499
;WIDTH:0.707012
G1 X112.908 Y109.576 E5.24088
G1 X113.238 Y109.576 E5.26733
;WIDTH:0.671341
G1 X113.568 Y109.577 E5.29231
;WIDTH:0.63567
G1 X113.898 Y109.578 E5.31582
;WIDTH:0.6
G1 X121.102 Y109.578 E5.79709
;WIDTH:0.630523
G1 X121.51 Y109.563 E5.82592
;WIDTH:0.661047
G1 X121.918 Y109.548 E5.8563
;WIDTH:0.68686
G1 X121.979 Y109.547 E5.86104
;WIDTH:0.712673
G1 X122.039 Y109.545 E5.86589
G1 X122.137 Y109.608 E5.87531
;WIDTH:0.711879
G1 X122.248 Y109.827 E5.89514
;WIDTH:0.674586
G1 X122.359 Y110.046 E5.91383
;WIDTH:0.637293
G1 X122.469 Y110.265 E5.93134
;WIDTH:0.6
G1 X126.072 Y116.506 E6.41276
;WIDTH:0.609012
G1 X126.572 Y117.362 E6.4801
;WIDTH:0.656409
G1 X126.614 Y117.435 E6.48632
;WIDTH:0.703807
G1 X126.656 Y117.507 E6.49297
G1 X126.549 Y117.682 E6.50933
;WIDTH:0.669204
G1 X126.443 Y117.857 E6.52476
;WIDTH:0.634602
G1 X126.337 Y118.032 E6.53931
;WIDTH:0.6
G1 X122.202 Y125.193 E7.09173
;WIDTH:0.634068
G1 X122.16 Y125.272 E7.09809
;WIDTH:0.668137
G1 X122.117 Y125.35 E7.1048
;WIDTH:0.702206
G1 X122.075 Y125.428 E7.11185
G1 X121.928 Y125.425 E7.12355
;WIDTH:0.668137
G1 X121.781 Y125.421 E7.13462
;WIDTH:0.634068
G1 X121.634 Y125.418 E7.14507
;WIDTH:0.6
G1 X113.366 Y125.418 E7.69742
;WIDTH:0.634068
G1 X113.219 Y125.421 E7.70787
;WIDTH:0.668137
G1 X113.072 Y125.425 E7.71894
;WIDTH:0.702206
G1 X112.985 Y125.427 E7.72586
G1 X112.75 Y125.103 F4800
G1 E3.72586 F2400
G92 E0
G1 X117.5 Y127.358 Z.539 F4800
G1 Z-.2
G1 E4 F2400
;WIDTH:0.6
G1 F2700
G1 X116.376 Y127.293 E4.07521
G1 X115.267 Y127.101 E4.1504
G1 X114.187 Y126.784 E4.22559
G1 X113.125 Y126.332 E4.3027
;WIDTH:0.635679
G1 X112.987 Y126.234 E4.31476
;WIDTH:0.671359
G1 X112.848 Y126.135 E4.32768
;WIDTH:0.707039
G1 X112.709 Y126.036 E4.34136
G1 X112.529 Y125.955 E4.35718
;WIDTH:0.671359
G1 X112.35 Y125.874 E4.37205
;WIDTH:0.635679
G1 X112.17 Y125.793 E4.38611
;WIDTH:0.6
G1 X111.259 Y125.131 E4.46134
G1 X110.429 Y124.37 E4.53657
G1 X109.692 Y123.519 E4.61178
G1 X109.057 Y122.59 E4.68696
G1 X108.531 Y121.594 E4.76221
G1 X108.123 Y120.545 E4.8374
G1 X107.837 Y119.456 E4.91262
G1 X107.676 Y118.312 E4.9898
;WIDTH:0.636218
G1 X107.687 Y118.087 E5.00587
;WIDTH:0.672436
G1 X107.699 Y117.862 E5.02296
;WIDTH:0.708654
G1 X107.711 Y117.637 E5.04107
G1 X107.684 Y117.378 E5.062
;WIDTH:0.658833
G1 X107.657 Y117.12 E5.08123
;WIDTH:0.609012
G1 X107.741 Y116.095 E5.15109
;WIDTH:0.6
G1 X107.964 Y114.992 E5.22627
G1 X108.312 Y113.921 E5.3015
G1 X108.776 Y112.905 E5.37612
G1 X109.361 Y111.933 E5.45191
G1 X110.049 Y111.042 E5.52711
G1 X110.833 Y110.234 E5.60232
G1 X111.732 Y109.504 E5.67968
;WIDTH:0.637293
G1 X111.977 Y109.369 E5.69967
;WIDTH:0.674587
G1 X112.223 Y109.233 E5.72106
;WIDTH:0.711881
G1 X112.688 Y108.953 E5.7649
;WIDTH:0.67486
G1 X112.907 Y108.809 E5.78486
;WIDTH:0.637839
G1 X113.662 Y108.416 E5.84574
;WIDTH:0.6
G1 X114.722 Y108.038 E5.92092
G1 X115.819 Y107.783 E5.99616
G1 X116.941 Y107.654 E6.07161
G1 X117.505 Y107.638 E6.1093
G1 X118.059 Y107.654 E6.14633
G1 X119.181 Y107.783 E6.22178
G1 X120.278 Y108.038 E6.29702
G1 X121.369 Y108.432 E6.37451
;WIDTH:0.638905
G1 X121.661 Y108.597 E6.39854
;WIDTH:0.677811
G1 X121.953 Y108.762 E6.4242
;WIDTH:0.716717
G1 X122.48 Y109.054 E6.47322
;WIDTH:0.685961
G1 X122.715 Y109.182 E6.49397
;WIDTH:0.655206
G1 X123.005 Y109.352 E6.51874
;WIDTH:0.627603
G1 X123.295 Y109.522 E6.54235
;WIDTH:0.6
G1 X124.167 Y110.234 E6.61756
G1 X124.951 Y111.042 E6.69277
G1 X125.633 Y111.926 E6.76736
G1 X126.22 Y112.897 E6.84316
G1 X126.688 Y113.921 E6.91837
G1 X127.036 Y114.992 E6.9936
G1 X127.262 Y116.131 E7.07117
;WIDTH:0.628738
G1 X127.34 Y117.239 E7.14935
;WIDTH:0.668694
G1 X127.315 Y117.438 E7.16447
;WIDTH:0.708651
G1 X127.289 Y117.637 E7.1806
G1 X127.301 Y117.872 E7.19951
;WIDTH:0.672433
G1 X127.312 Y118.107 E7.21735
;WIDTH:0.636217
G1 X127.323 Y118.342 E7.23413
;WIDTH:0.6
G1 X127.163 Y119.456 E7.30931
G1 X126.877 Y120.545 E7.38453
G1 X126.469 Y121.594 E7.45972
G1 X125.943 Y122.59 E7.53497
G1 X125.308 Y123.519 E7.61015
G1 X124.571 Y124.37 E7.68536
G1 X123.741 Y125.131 E7.76059
G1 X122.808 Y125.805 E7.83748
;WIDTH:0.635679
G1 X122.636 Y125.882 E7.85091
;WIDTH:0.671358
G1 X122.463 Y125.959 E7.86525
;WIDTH:0.707038
G1 X122.291 Y126.036 E7.88036
G1 X122.144 Y126.139 E7.89475
;WIDTH:0.671358
G1 X121.997 Y126.243 E7.90838
;WIDTH:0.635679
G1 X121.85 Y126.346 E7.92117
;WIDTH:0.6
G1 X120.813 Y126.784 E7.99637
G1 X119.733 Y127.101 E8.07156
G1 X118.624 Y127.293 E8.14675
G1 X117.56 Y127.354 E8.21795
G1 X117.16 Y127.337 F4800
;LAYER_CHANGE
;Z:0
;HEIGHT:0.2
G1 E4.21795 F2400
G92 E0
G1 X117.16 Y127.337 Z-.2 F4800
G1 X126.019 Y116.2 Z1.8
G1 X126.434 Y115.679 Z1.8
M104 S250 ; set temperature
M140 S90 ; set bed temperature
G1 Z0
G1 E4 F2400
G92 E0
;TYPE:Perimeter
;WIDTH:0.424548
G1 F1200
G1 X125.666 Y114.35 E.04871
;WIDTH:0.472973
G1 X125.179 Y113.457 E.08508
G1 X124.654 Y112.559 E.12228
;WIDTH:0.46185
G1 X124.39 Y112.136 E.13965
;WIDTH:0.428565
G1 X124.127 Y111.712 E.15565
;WIDTH:0.395279
G1 X123.48 Y110.592 E.19355
G1 X123.685 Y110.76 E.20132
G1 X124.419 Y111.516 E.23219
;WIDTH:0.428565
G1 X124.717 Y111.931 E.24857
;WIDTH:0.46185
G1 X125.015 Y112.346 E.26637
;WIDTH:0.472973
G1 X125.549 Y113.238 E.30355
G1 X126.005 Y114.175 E.34081
;WIDTH:0.424548
G1 X126.332 Y115.177 E.37426
G1 X126.422 Y115.62 E.3886
G1 X126.422 Y115.62 F4800
G1 X126.974 Y117.517
;WIDTH:0.530728
G1 F1200
G1 X126.915 Y117.354 E.39563
;WIDTH:0.493208
G1 X126.855 Y117.191 E.40213
;WIDTH:0.455687
G1 X126.36 Y116.34 E.43592
;WIDTH:0.449999
G1 X122.757 Y110.099 E.67985
;WIDTH:0.498518
G1 X122.558 Y109.736 E.69553
;WIDTH:0.547036
G1 X122.359 Y109.372 E.71292
G1 X122.451 Y109.417 E.71721
;WIDTH:0.522017
G1 X122.543 Y109.461 E.72127
;WIDTH:0.496997
G1 X123.1 Y109.791 E.74571
;WIDTH:0.449999
G1 X123.942 Y110.479 E.78252
G1 X124.7 Y111.259 E.81934
G1 X125.35 Y112.102 E.85537
G1 X125.926 Y113.053 E.893
G1 X126.378 Y114.042 E.92981
G1 X126.714 Y115.076 E.96661
G1 X126.931 Y116.16 E1.00403
;WIDTH:0.472291
G1 X127.012 Y117.23 E1.04234
;WIDTH:0.50151
G1 X126.993 Y117.373 E1.04784
;WIDTH:0.530728
G1 X126.982 Y117.457 E1.05128
G1 E-2.94872 F2400
G92 E0
G1 X126.982 Y117.457 F4800
G1 X123.565 Y124.298 Z1.075
G1 Z0
G1 E4 F2400
;WIDTH:0.436704
G1 F1200
G1 X124.4 Y122.852 E4.05467
;WIDTH:0.475459
G1 X124.925 Y121.981 E4.09125
G1 X125.425 Y121.096 E4.12781
;WIDTH:0.456108
G1 X125.663 Y120.644 E4.14536
;WIDTH:0.417181
G1 X125.902 Y120.193 E4.16124
;WIDTH:0.378254
G1 X126.494 Y119.166 E4.19429
G1 X126.476 Y119.293 E4.19787
G1 X126.203 Y120.337 E4.22796
;WIDTH:0.417181
G1 X126 Y120.806 E4.24386
;WIDTH:0.456108
G1 X125.787 Y121.296 E4.26222
;WIDTH:0.475459
G1 X125.304 Y122.19 E4.29877
G1 X124.733 Y123.062 E4.33626
;WIDTH:0.436704
G1 X124.044 Y123.858 E4.37073
G1 X123.609 Y124.258 E4.39008
G1 X123.609 Y124.258 F4800
G1 X122.231 Y125.705
;WIDTH:0.527532
G1 F1200
G1 X122.361 Y125.532 E4.3988
;WIDTH:0.488766
G1 X122.49 Y125.359 E4.4068
;WIDTH:0.449999
G1 X126.625 Y118.198 E4.6867
;WIDTH:0.495296
G1 X126.795 Y117.914 E4.69915
;WIDTH:0.540592
G1 X126.966 Y117.63 E4.71287
G1 X126.979 Y117.972 E4.72703
;WIDTH:0.495296
G1 X126.992 Y118.313 E4.73987
;WIDTH:0.449999
G1 X126.84 Y119.367 E4.77592
G1 X126.56 Y120.443 E4.81355
G1 X126.166 Y121.456 E4.85034
G1 X125.658 Y122.418 E4.88716
G1 X125.044 Y123.316 E4.92398
G1 X124.332 Y124.138 E4.96079
G1 X123.531 Y124.873 E4.99759
G1 X122.656 Y125.509 E5.0342
;WIDTH:0.488766
G1 X122.444 Y125.607 E5.04286
;WIDTH:0.527532
G1 X122.286 Y125.68 E5.04987
G1 E1.04987 F2400
G92 E0
G1 X122.286 Y125.68 F4800
G1 X117.5 Y126.603 Z.685
G1 Z0
G1 E4 F2400
;WIDTH:0.476263
G1 F1200
G1 X116.472 Y126.56 E4.03707
;WIDTH:0.447223
G1 X115.941 Y126.492 E4.05507
;WIDTH:0.403278
G1 X115.433 Y126.426 E4.07042
;WIDTH:0.359333
G1 X114.378 Y126.112 E4.09938
G1 X115.46 Y126.112 E4.12785
;WIDTH:0.403278
G1 X115.972 Y126.134 E4.14321
;WIDTH:0.447223
G1 X116.483 Y126.156 E4.1604
;WIDTH:0.476263
G1 X117.5 Y126.17 E4.19705
G1 X118.517 Y126.156 E4.2337
;WIDTH:0.447223
G1 X119.028 Y126.134 E4.25089
;WIDTH:0.403279
G1 X119.54 Y126.112 E4.26625
;WIDTH:0.359334
G1 X120.622 Y126.112 E4.29472
G1 X119.567 Y126.426 E4.32368
;WIDTH:0.403279
G1 X119.059 Y126.492 E4.33903
;WIDTH:0.447223
G1 X118.528 Y126.56 E4.35703
;WIDTH:0.476263
G1 X117.56 Y126.601 E4.39194
G1 E.39194 F2400
G92 E0
G1 X117.56 Y126.601 F4800
G1 X112.87 Y125.756 Z.67
G1 Z0
G1 E4 F2400
;WIDTH:0.537374
G1 F1200
